public/img/prop-icon2.svg

<svg width="25" height="26" viewBox="0 0 25 26" fill="none" xmlns="http://www.w3.org/2000/svg">
<path d="M24.2303 16.3966L22.4347 17.3023L20.7998 16.4749L22.7009 15.5074C23.1454 15.2879 22.2212 13.8681 21.7767 14.102L18.9514 15.5383L16.6773 14.3832V12.338L18.9514 11.1829L21.7767 12.6193C22.2212 12.8387 23.1454 11.4333 22.7009 11.2138L20.8009 10.2463L22.4359 9.41893L24.2315 10.3246C24.5516 10.4967 25.2436 9.45087 24.907 9.29426L23.7881 8.73168L24.8355 8.20104C25.3503 7.93623 24.2667 6.29692 23.7518 6.56172L22.7033 7.09236V5.95278C22.7033 5.62512 21.3346 5.62512 21.3346 5.95278V7.77859L19.6996 8.60597V6.66991C19.6996 6.21758 17.8524 6.21758 17.8524 6.66991V9.54258L15.5959 10.6822L13.5704 9.68271V7.37262L16.3946 5.93732C16.8391 5.71785 15.9149 4.29801 15.4704 4.5319L13.5716 5.49735V3.84361L15.366 2.93483C15.6862 2.76276 15.0107 1.73239 14.6905 1.90446L13.5716 2.46704V1.3934C13.5716 0.862763 11.4042 0.862763 11.4042 1.3934V2.45468L10.2853 1.8921C9.96514 1.72003 9.27316 2.76585 9.60977 2.92247L11.403 3.82816V5.48293L9.50069 4.51541C9.05619 4.29595 8.132 5.70137 8.5765 5.92084L11.4019 7.35717V9.66828L9.37637 10.6667L7.11984 9.51167V6.66991C7.11984 6.21758 5.27263 6.21758 5.27263 6.66991V8.60597L3.63771 7.77859V5.95278C3.63771 5.62512 2.26901 5.62512 2.26901 5.95278V7.09236L1.2205 6.56172C0.705624 6.29692 -0.379245 7.95272 0.136801 8.20104L1.18531 8.73168L0.0840233 9.29426C-0.23616 9.46633 0.439391 10.4967 0.759575 10.3246L2.57277 9.41893L4.2077 10.2463L2.30537 11.2138C1.86086 11.4333 2.78506 12.8531 3.22956 12.6193L6.05491 11.1829L8.32903 12.338V14.3832L6.05491 15.5383L3.22721 14.103C2.78271 13.8835 1.85852 15.2889 2.30302 15.5084L4.20418 16.4759L2.56925 17.3033L0.777167 16.3976C0.456984 16.2255 -0.234987 17.2714 0.101616 17.428L1.2205 17.9906L0.171986 18.5212C-0.342888 18.786 0.740809 20.4253 1.25568 20.1605L2.30537 19.6309V20.7705C2.30537 21.0981 3.67406 21.0981 3.67406 20.7705V18.9426L5.31134 18.1152V20.0513C5.31134 20.5036 7.15855 20.5036 7.15855 20.0513V17.1786L9.41508 16.039L11.4406 17.0385V19.3496L8.61521 20.7859C8.1707 21.0054 9.09489 22.4253 9.5394 22.1914L11.4406 21.2238V22.8786L9.62736 23.7998C9.30718 23.9718 9.98273 25.0022 10.3029 24.8301L11.4218 24.2676V25.3288C11.4218 25.8595 13.5892 25.8595 13.5892 25.3288V24.2676L14.7081 24.8301C15.0283 25.0022 15.7202 23.9564 15.3836 23.7998L13.588 22.8941V21.2393L15.4892 22.2068C15.9337 22.4263 16.8579 21.0209 16.4134 20.8014L13.588 19.3651V17.055L15.6135 16.0555L17.87 17.2106V20.0523C17.87 20.5047 19.7172 20.5047 19.7172 20.0523V18.1163L21.3522 18.9436V20.7705C21.3522 21.0981 22.7209 21.0981 22.7209 20.7705V19.6319L23.7694 20.1626C24.2842 20.4274 25.3691 18.7716 24.8531 18.5233L23.8046 17.9926L24.9234 17.43C25.2272 17.2569 24.5505 16.2266 24.2303 16.3986V16.3966ZM12.502 15.7876L10.1035 14.5852V12.135L12.502 10.949L14.9004 12.135V14.5862L12.502 15.7876Z" fill="black"/>
</svg>

<svg width="25" height="26" fill="none" xmlns="http://www.w3.org/2000/svg"><path d="M24.23 16.397l-1.795.905-1.635-.827 1.9-.968c.445-.22-.479-1.639-.923-1.405l-2.826 1.436-2.274-1.155v-2.045l2.274-1.155 2.826 1.436c.444.22 1.368-1.186.924-1.405l-1.9-.968 1.635-.827 1.796.906c.32.172 1.012-.874.675-1.03l-1.119-.563 1.047-.531c.515-.265-.568-1.904-1.083-1.64l-1.049.531v-1.14c0-.327-1.368-.327-1.368 0V7.78l-1.635.827V6.67c0-.452-1.848-.452-1.848 0v2.873l-2.256 1.14-2.026-1v-2.31l2.825-1.436c.444-.22-.48-1.639-.925-1.405l-1.898.965V3.844l1.794-.91c.32-.171-.355-1.202-.675-1.03l-1.12.563V1.393c0-.53-2.167-.53-2.167 0v1.062l-1.119-.563c-.32-.172-1.012.874-.675 1.03l1.793.906v1.655l-1.902-.968c-.445-.219-1.369 1.186-.925 1.406l2.826 1.436v2.311l-2.026.999L7.12 9.512V6.67c0-.452-1.847-.452-1.847 0v1.936l-1.635-.827V5.953c0-.328-1.369-.328-1.369 0v1.14L1.22 6.561C.706 6.297-.38 7.952.137 8.2l1.048.53-1.101.563c-.32.172.355 1.203.676 1.03l1.813-.905 1.635.827-1.903.968c-.444.22.48 1.64.925 1.405l2.825-1.436 2.274 1.155v2.045l-2.274 1.155-2.828-1.435c-.444-.22-1.368 1.186-.924 1.405l1.901.968-1.635.827-1.792-.905c-.32-.172-1.012.873-.675 1.03l1.119.563-1.049.53c-.515.265.569 1.904 1.084 1.64l1.05-.53v1.14c0 .327 1.368.327 1.368 0v-1.828l1.637-.828v1.936c0 .453 1.848.453 1.848 0v-2.87l2.256-1.14 2.026 1v2.31l-2.826 1.437c-.444.22.48 1.64.924 1.405l1.902-.967v1.655l-1.814.92c-.32.173.356 1.203.676 1.031l1.119-.562v1.06c0 .532 2.167.532 2.167 0v-1.06l1.12.562c.32.172 1.011-.874.675-1.03l-1.796-.906V21.24l1.901.968c.445.22 1.369-1.186.924-1.406l-2.825-1.436v-2.31l2.026-1 2.256 1.156v2.841c0 .453 1.847.453 1.847 0v-1.936l1.635.828v1.826c0 .328 1.369.328 1.369 0v-1.138l1.048.53c.515.265 1.6-1.39 1.084-1.639l-1.048-.53 1.118-.563c.304-.173-.372-1.203-.693-1.031v-.002zm-11.728-.61l-2.399-1.202v-2.45l2.399-1.186 2.398 1.186v2.451l-2.398 1.202z" fill="#000"/></svg>
